X:585
T: "Tanzlied"
N: Z1265
O: Europa, Mitteleuropa, Deutschland, Schwaben
R: Natur und Welt
M: 3/4
L: 1/16
K: G
G8GABc | d8B4 | G4A4D4 | F4A3DD4
G8GABc | d8B4 | G4A4F4 | G8z4
A6D2D4 | B6A2G4 | A6D2D4 | B6A2G4
G8GABc | d8B4 | G4A4F4 | G8z4

